Newaita-dark/.places-manjaro/256/folder-open.svg

<?xml version="1.0" encoding="UTF-8"?>
<svg xmlns="http://www.w3.org/2000/svg" xmlns:xlink="http://www.w3.org/1999/xlink" width="256pt" height="256pt" viewBox="0 0 256 256" version="1.1">
<defs>
<linearGradient id="linear0" gradientUnits="userSpaceOnUse" x1="254" y1="233.5" x2="254" y2="254.666672" gradientTransform="matrix(0.500048,0,0,0.500048,-0.0000305205,112.802458)">
<stop offset="0" style="stop-color:rgb(0%,0%,0%);stop-opacity:0.27451;"/>
<stop offset="1" style="stop-color:rgb(0%,0%,0%);stop-opacity:0;"/>
</linearGradient>
<radialGradient id="radial0" gradientUnits="userSpaceOnUse" cx="450.908936" cy="189.579361" fx="450.908936" fy="189.579361" r="21.166656" gradientTransform="matrix(0.00000139336,-0.62506,-1.125108,-0.000000812309,432.921701,514.054838)">
<stop offset="0" style="stop-color:rgb(0%,0%,0%);stop-opacity:0.313725;"/>
<stop offset="0.222222" style="stop-color:rgb(0%,0%,0%);stop-opacity:0.27451;"/>
<stop offset="1" style="stop-color:rgb(0%,0%,0%);stop-opacity:0;"/>
</radialGradient>
<radialGradient id="radial1" gradientUnits="userSpaceOnUse" cx="450.908936" cy="189.579361" fx="450.908936" fy="189.579361" r="21.166656" gradientTransform="matrix(-0.00000139336,0.62506,1.125108,0.000000812309,-178.897423,-54.927654)">
<stop offset="0" style="stop-color:rgb(0%,0%,0%);stop-opacity:0.313725;"/>
<stop offset="0.222222" style="stop-color:rgb(0%,0%,0%);stop-opacity:0.27451;"/>
<stop offset="1" style="stop-color:rgb(0%,0%,0%);stop-opacity:0;"/>
</radialGradient>
<radialGradient id="radial2" gradientUnits="userSpaceOnUse" cx="450.908936" cy="189.579361" fx="450.908936" fy="189.579361" r="21.166656" gradientTransform="matrix(-0.00000139336,-0.62506,1.125108,-0.000000812309,-178.897423,514.054838)">
<stop offset="0" style="stop-color:rgb(0%,0%,0%);stop-opacity:0.313725;"/>
<stop offset="0.222222" style="stop-color:rgb(0%,0%,0%);stop-opacity:0.27451;"/>
<stop offset="1" style="stop-color:rgb(0%,0%,0%);stop-opacity:0;"/>
</radialGradient>
<radialGradient id="radial3" gradientUnits="userSpaceOnUse" cx="450.908936" cy="189.579361" fx="450.908936" fy="189.579361" r="21.166656" gradientTransform="matrix(0.00000139336,0.62506,-1.125108,0.000000812309,432.921686,-54.927658)">
<stop offset="0" style="stop-color:rgb(0%,0%,0%);stop-opacity:0.313725;"/>
<stop offset="0.222222" style="stop-color:rgb(0%,0%,0%);stop-opacity:0.27451;"/>
<stop offset="1" style="stop-color:rgb(0%,0%,0%);stop-opacity:0;"/>
</radialGradient>
<linearGradient id="linear1" gradientUnits="userSpaceOnUse" x1="317.5" y1="233.499985" x2="317.5" y2="-147.500015" gradientTransform="matrix(0.500048,0,0,0.500048,-0.000001506,112.802442)">
<stop offset="0" style="stop-color:rgb(25.882353%,25.882353%,25.882353%);stop-opacity:1;"/>
<stop offset="1" style="stop-color:rgb(38.039216%,38.039216%,38.039216%);stop-opacity:1;"/>
</linearGradient>
<linearGradient id="linear2" gradientUnits="userSpaceOnUse" x1="254" y1="233.5" x2="254" y2="-84" gradientTransform="matrix(1,0,0,1,0.00000308626,10.583336)">
<stop offset="0" style="stop-color:rgb(87.843137%,87.843137%,87.843137%);stop-opacity:1;"/>
<stop offset="1" style="stop-color:rgb(93.333333%,93.333333%,93.333333%);stop-opacity:1;"/>
</linearGradient>
<linearGradient id="linear3" gradientUnits="userSpaceOnUse" x1="254" y1="-115.750008" x2="254" y2="233.5" gradientTransform="matrix(0.500048,0,0,0.500048,-0.000001506,112.802442)">
<stop offset="0" style="stop-color:rgb(30.196078%,71.372549%,67.45098%);stop-opacity:1;"/>
<stop offset="1" style="stop-color:rgb(14.901961%,65.098039%,60.392157%);stop-opacity:1;"/>
</linearGradient>
</defs>
<g id="surface1">
<path style=" stroke:none;fill-rule:nonzero;fill:url(#linear0);" d="M 31.753906 229.5625 L 222.269531 229.5625 L 222.269531 240.148438 L 31.753906 240.148438 Z M 31.753906 229.5625 "/>
<path style=" stroke:none;fill-rule:nonzero;fill:url(#radial0);" d="M 222.269531 229.5625 L 243.441406 229.5625 L 243.441406 218.980469 L 222.269531 218.980469 Z M 222.269531 229.5625 "/>
<path style=" stroke:none;fill-rule:nonzero;fill:url(#radial1);" d="M 31.753906 229.5625 L 10.585938 229.5625 L 10.585938 240.148438 L 31.753906 240.148438 Z M 31.753906 229.5625 "/>
<path style=" stroke:none;fill-rule:nonzero;fill:url(#radial2);" d="M 31.753906 229.5625 L 10.585938 229.5625 L 10.585938 218.980469 L 31.753906 218.980469 Z M 31.753906 229.5625 "/>
<path style=" stroke:none;fill-rule:nonzero;fill:url(#radial3);" d="M 222.269531 229.5625 L 243.441406 229.5625 L 243.441406 240.148438 L 222.269531 240.148438 Z M 222.269531 229.5625 "/>
<path style=" stroke:none;fill-rule:nonzero;fill:url(#linear1);" d="M 58.214844 39.046875 C 52.351562 39.046875 47.628906 43.765625 47.628906 49.628906 L 47.628906 60.214844 L 21.167969 60.214844 C 15.304688 60.214844 10.585938 64.933594 10.585938 70.796875 L 10.585938 155.472656 C 10.585938 161.335938 15.304688 166.058594 21.167969 166.058594 L 232.855469 166.058594 C 238.71875 166.058594 243.441406 161.335938 243.441406 155.472656 L 243.441406 70.796875 C 243.441406 68.101562 242.441406 65.652344 240.792969 63.785156 L 240.792969 49.628906 C 240.792969 43.765625 236.074219 39.046875 230.210938 39.046875 Z M 58.214844 39.046875 "/>
<path style="fill-rule:nonzero;fill:url(#linear2);stroke-width:3;stroke-linecap:round;stroke-linejoin:miter;stroke:rgb(12.941177%,12.941177%,12.941177%);stroke-opacity:1;stroke-miterlimit:4;" d="M 52.916822 -73.41977 L 455.081542 -73.41977 C 460.924734 -73.41977 465.666469 -68.678036 465.666469 -62.834844 L 465.666469 106.500548 C 465.666469 112.34374 460.924734 117.085475 455.081542 117.085475 L 52.916822 117.085475 C 47.07363 117.085475 42.331895 112.34374 42.331895 106.500548 L 42.331895 -62.834844 C 42.331895 -68.678036 47.07363 -73.41977 52.916822 -73.41977 Z M 52.916822 -73.41977 " transform="matrix(0.500048,0,0,0.500048,0,107.510266)"/>
<path style=" stroke:none;fill-rule:nonzero;fill:rgb(90.196079%,90.196079%,90.196079%);fill-opacity:0.588235;" d="M 58.214844 39.046875 C 52.351562 39.046875 47.628906 43.765625 47.628906 49.628906 L 47.628906 50.953125 C 47.628906 45.089844 52.351562 40.367188 58.214844 40.367188 L 230.210938 40.367188 C 236.074219 40.367188 240.792969 45.089844 240.792969 50.953125 L 240.792969 49.628906 C 240.792969 43.765625 236.074219 39.046875 230.210938 39.046875 Z M 58.214844 39.046875 "/>
<path style=" stroke:none;fill-rule:nonzero;fill:rgb(12.941177%,12.941177%,12.941177%);fill-opacity:1;" d="M 58.214844 38.296875 C 51.949219 38.296875 46.878906 43.363281 46.878906 49.628906 L 46.878906 59.464844 L 21.167969 59.464844 C 14.902344 59.464844 9.835938 64.53125 9.835938 70.796875 L 9.835938 155.472656 C 9.835938 161.738281 14.902344 166.808594 21.167969 166.808594 L 232.855469 166.808594 C 239.121094 166.808594 244.191406 161.738281 244.191406 155.472656 L 244.191406 70.796875 C 244.191406 68.027344 243.191406 65.488281 241.542969 63.523438 L 241.542969 49.628906 C 241.542969 43.363281 236.476562 38.296875 230.210938 38.296875 Z M 58.214844 39.796875 L 230.210938 39.796875 C 235.671875 39.796875 240.042969 44.167969 240.042969 49.628906 L 240.042969 64.070312 L 240.230469 64.285156 C 241.761719 66.015625 242.691406 68.289062 242.691406 70.796875 L 242.691406 155.472656 C 242.691406 160.933594 238.316406 165.308594 232.855469 165.308594 L 21.167969 165.308594 C 15.707031 165.308594 11.335938 160.933594 11.335938 155.472656 L 11.335938 70.796875 C 11.335938 65.335938 15.707031 60.964844 21.167969 60.964844 L 48.378906 60.964844 L 48.378906 49.628906 C 48.378906 44.167969 52.753906 39.796875 58.214844 39.796875 Z M 58.214844 39.796875 "/>
<path style=" stroke:none;fill-rule:nonzero;fill:url(#linear3);" d="M 21.167969 107.84375 C 15.304688 107.84375 10.585938 112.5625 10.585938 118.429688 L 10.585938 218.980469 C 10.585938 224.84375 15.304688 229.5625 21.167969 229.5625 L 232.855469 229.5625 C 238.71875 229.5625 243.441406 224.84375 243.441406 218.980469 L 243.441406 118.429688 L 100.550781 118.429688 C 94.6875 118.429688 89.96875 113.707031 89.96875 107.84375 Z M 21.167969 107.84375 "/>
<path style=" stroke:none;fill-rule:nonzero;fill:rgb(0%,0%,0%);fill-opacity:0.196078;" d="M 21.167969 229.5625 C 15.304688 229.5625 10.585938 224.84375 10.585938 218.980469 L 10.585938 217.65625 C 10.585938 223.519531 15.304688 228.242188 21.167969 228.242188 L 232.855469 228.242188 C 238.71875 228.242188 243.441406 223.519531 243.441406 217.65625 L 243.441406 218.980469 C 243.441406 224.84375 238.71875 229.5625 232.855469 229.5625 Z M 21.167969 229.5625 "/>
<path style=" stroke:none;fill-rule:nonzero;fill:rgb(90.196079%,90.196079%,90.196079%);fill-opacity:0.937255;" d="M 21.167969 107.84375 C 15.304688 107.84375 10.585938 112.5625 10.585938 118.429688 L 10.585938 119.75 C 10.585938 113.886719 15.304688 109.167969 21.167969 109.167969 L 89.96875 109.167969 L 89.96875 107.84375 Z M 21.167969 107.84375 "/>
<path style=" stroke:none;fill-rule:nonzero;fill:rgb(90.196079%,90.196079%,90.196079%);fill-opacity:0.937255;" d="M 100.550781 119.75 C 94.6875 119.75 89.96875 115.03125 89.96875 109.167969 L 89.96875 107.84375 C 89.96875 113.707031 94.6875 118.4375 100.550781 118.429688 L 244.101562 118.429688 L 244.101562 119.75 Z M 100.550781 119.75 "/>
<path style=" stroke:none;fill-rule:nonzero;fill:rgb(12.941177%,12.941177%,12.941177%);fill-opacity:1;" d="M 21.167969 107.09375 C 14.902344 107.09375 9.835938 112.160156 9.835938 118.429688 L 9.835938 218.980469 C 9.835938 225.246094 14.902344 230.3125 21.167969 230.3125 L 232.855469 230.3125 C 239.121094 230.3125 244.191406 225.246094 244.191406 218.980469 L 244.191406 117.679688 L 100.550781 117.679688 C 95.089844 117.679688 90.71875 113.304688 90.71875 107.84375 L 90.71875 107.09375 Z M 21.167969 108.59375 L 89.253906 108.59375 C 89.640625 114.507812 94.539062 119.179688 100.550781 119.179688 L 242.691406 119.179688 L 242.691406 218.980469 C 242.691406 224.441406 238.316406 228.8125 232.855469 228.8125 L 21.167969 228.8125 C 15.707031 228.8125 11.335938 224.441406 11.335938 218.980469 L 11.335938 118.429688 C 11.335938 112.964844 15.707031 108.59375 21.167969 108.59375 Z M 21.167969 108.59375 "/>
</g>
</svg>

<svg xmlns="http://www.w3.org/2000/svg" width="256pt" height="256pt" viewBox="0 0 256 256"><defs><linearGradient id="a" gradientUnits="userSpaceOnUse" x1="254" y1="233.5" x2="254" y2="254.667" gradientTransform="matrix(.50005 0 0 .50005 0 112.802)"><stop offset="0" stop-opacity=".275"/><stop offset="1" stop-opacity="0"/></linearGradient><radialGradient id="b" gradientUnits="userSpaceOnUse" cx="450.909" cy="189.579" fx="450.909" fy="189.579" r="21.167" gradientTransform="matrix(0 -.62506 -1.1251 0 432.922 514.055)"><stop offset="0" stop-opacity=".314"/><stop offset=".222" stop-opacity=".275"/><stop offset="1" stop-opacity="0"/></radialGradient><radialGradient id="c" gradientUnits="userSpaceOnUse" cx="450.909" cy="189.579" fx="450.909" fy="189.579" r="21.167" gradientTransform="matrix(0 .62506 1.1251 0 -178.897 -54.928)"><stop offset="0" stop-opacity=".314"/><stop offset=".222" stop-opacity=".275"/><stop offset="1" stop-opacity="0"/></radialGradient><radialGradient id="d" gradientUnits="userSpaceOnUse" cx="450.909" cy="189.579" fx="450.909" fy="189.579" r="21.167" gradientTransform="matrix(0 -.62506 1.1251 0 -178.897 514.055)"><stop offset="0" stop-opacity=".314"/><stop offset=".222" stop-opacity=".275"/><stop offset="1" stop-opacity="0"/></radialGradient><radialGradient id="e" gradientUnits="userSpaceOnUse" cx="450.909" cy="189.579" fx="450.909" fy="189.579" r="21.167" gradientTransform="matrix(0 .62506 -1.1251 0 432.922 -54.928)"><stop offset="0" stop-opacity=".314"/><stop offset=".222" stop-opacity=".275"/><stop offset="1" stop-opacity="0"/></radialGradient><linearGradient id="f" gradientUnits="userSpaceOnUse" x1="317.5" y1="233.5" x2="317.5" y2="-147.5" gradientTransform="matrix(.50005 0 0 .50005 0 112.802)"><stop offset="0" stop-color="#424242"/><stop offset="1" stop-color="#616161"/></linearGradient><linearGradient id="g" gradientUnits="userSpaceOnUse" x1="254" y1="233.5" x2="254" y2="-84" gradientTransform="translate(0 10.583)"><stop offset="0" stop-color="#e0e0e0"/><stop offset="1" stop-color="#eee"/></linearGradient><linearGradient id="h" gradientUnits="userSpaceOnUse" x1="254" y1="-115.75" x2="254" y2="233.5" gradientTransform="matrix(.50005 0 0 .50005 0 112.802)"><stop offset="0" stop-color="#4db6ac"/><stop offset="1" stop-color="#26a69a"/></linearGradient></defs><path d="M31.754 229.563H222.27v10.585H31.754zm0 0" fill="url(#a)"/><path d="M222.27 229.563h21.171V218.98H222.27zm0 0" fill="url(#b)"/><path d="M31.754 229.563H10.586v10.585h21.168zm0 0" fill="url(#c)"/><path d="M31.754 229.563H10.586V218.98h21.168zm0 0" fill="url(#d)"/><path d="M222.27 229.563h21.171v10.585H222.27zm0 0" fill="url(#e)"/><path d="M58.215 39.047a10.561 10.561 0 0 0-10.586 10.582v10.586H21.168a10.558 10.558 0 0 0-10.582 10.582v84.676a10.561 10.561 0 0 0 10.582 10.586h211.687a10.564 10.564 0 0 0 10.586-10.586V70.797c0-2.695-1-5.145-2.648-7.012V49.63a10.558 10.558 0 0 0-10.582-10.582zm0 0" fill="url(#f)"/><path d="M52.917-73.42h402.165c5.843 0 10.584 4.742 10.584 10.585v169.336c0 5.843-4.741 10.584-10.584 10.584H52.917c-5.843 0-10.585-4.741-10.585-10.584V-62.835c0-5.843 4.742-10.585 10.585-10.585zm0 0" transform="matrix(.50005 0 0 .50005 0 107.51)" fill="url(#g)" stroke-width="3" stroke-linecap="round" stroke="#212121"/><path d="M58.215 39.047a10.561 10.561 0 0 0-10.586 10.582v1.324a10.564 10.564 0 0 1 10.586-10.586H230.21a10.561 10.561 0 0 1 10.582 10.586V49.63a10.558 10.558 0 0 0-10.582-10.582zm0 0" fill="#e6e6e6" fill-opacity=".588"/><path d="M58.215 38.297c-6.266 0-11.336 5.066-11.336 11.332v9.836H21.168A11.323 11.323 0 0 0 9.836 70.797v84.676c0 6.265 5.066 11.336 11.332 11.336h211.687a11.33 11.33 0 0 0 11.336-11.336V70.797c0-2.77-1-5.309-2.648-7.274V49.63a11.323 11.323 0 0 0-11.332-11.332zm0 1.5H230.21a9.793 9.793 0 0 1 9.832 9.832V64.07l.187.215a9.778 9.778 0 0 1 2.461 6.512v84.676a9.8 9.8 0 0 1-9.836 9.836H21.168a9.796 9.796 0 0 1-9.832-9.836V70.797a9.793 9.793 0 0 1 9.832-9.832h27.21V49.629a9.796 9.796 0 0 1 9.837-9.832zm0 0" fill="#212121"/><path d="M21.168 107.844a10.559 10.559 0 0 0-10.582 10.586v100.55a10.558 10.558 0 0 0 10.582 10.583h211.687a10.561 10.561 0 0 0 10.586-10.583V118.43h-142.89a10.561 10.561 0 0 1-10.582-10.586zm0 0" fill="url(#h)"/><path d="M21.168 229.563a10.558 10.558 0 0 1-10.582-10.583v-1.324a10.561 10.561 0 0 0 10.582 10.586h211.687a10.564 10.564 0 0 0 10.586-10.586v1.324a10.561 10.561 0 0 1-10.586 10.583zm0 0" fill-opacity=".196"/><path d="M21.168 107.844a10.559 10.559 0 0 0-10.582 10.586v1.32a10.558 10.558 0 0 1 10.582-10.582h68.8v-1.324zm0 0" fill="#e6e6e6" fill-opacity=".937"/><path d="M100.55 119.75a10.558 10.558 0 0 1-10.581-10.582v-1.324c0 5.863 4.719 10.594 10.582 10.586H244.1v1.32zm0 0" fill="#e6e6e6" fill-opacity=".937"/><path d="M21.168 107.094A11.324 11.324 0 0 0 9.836 118.43v100.55a11.323 11.323 0 0 0 11.332 11.333h211.687c6.266 0 11.336-5.067 11.336-11.333v-101.3h-143.64a9.796 9.796 0 0 1-9.832-9.836v-.75zm0 1.5h68.086c.387 5.914 5.285 10.586 11.297 10.586h142.14v99.8a9.796 9.796 0 0 1-9.836 9.833H21.168a9.793 9.793 0 0 1-9.832-9.833V118.43a9.794 9.794 0 0 1 9.832-9.836zm0 0" fill="#212121"/></svg>
